X:7055
T:The Maids Of Mitchelstown
O:england
R:Reel
S:Paddy Canny, Clare (fiddle)
H:The 'f#' in bars 10 and 14 are big slides.
D:Home tape of unknown provenance
N:As played
M:4/4
K:G
D2AG EFGB | (3.A.B.A GA cAGE | D2AG EFGB | AcGE ~E2GE |
D2AG EFGB | (3.A.B.A GA cAGE | DAAG EFGB | AcGE {G}EDD2 ||
(3.E.F.G AB cEGE | =FAde ~^f2-fd | cAGE =FEFG | AcGE {G}EDD2 |
(3.E.F.G AB ~c3A | ~d3e ~f3d | cAGE {G}=FEFG | AcdB cAGE ||
